Obsidian-SemiLight/actions/24s/draw-triangle.svg

<svg viewBox="0 0 24 24" xmlns="http://www.w3.org/2000/svg"><path d="m3.9980469 3.9980469v1.40625 14.5937501h14.5937501l1.402344.003906h.007812l-.003906-.003906.003906-.003906zm1 2.40625 12.5937501 12.5937501h-12.5937501z" fill="#4d4d4d"/></svg>

<svg xmlns="http://www.w3.org/2000/svg" viewBox="0 0 24 24">
  <defs id="defs3051">
    <style type="text/css" id="current-color-scheme">
      .ColorScheme-Text {
        color:#4d4d4d;
      }
      </style>
  </defs>
 <path style="fill:currentColor;fill-opacity:1;stroke:none" 
     d="M 3.9980469 3.9980469 L 3.9980469 5.4042969 L 3.9980469 19.998047 L 18.591797 19.998047 L 19.994141 20.001953 L 20.001953 20.001953 L 19.998047 19.998047 L 20.001953 19.994141 L 3.9980469 3.9980469 z M 4.9980469 6.4042969 L 17.591797 18.998047 L 4.9980469 18.998047 L 4.9980469 6.4042969 z "
     class="ColorScheme-Text"
     />
</svg>
